X: 29569
T: Nonesuch
R: polka
M: 2/4
K: Dminor
a|af ga|fe/f/ da|af ga|f2d:|
|:e-|ec de|fe/f/ df|ec de|1 f2d:|2 d2 d||

